assets/icons/badge-info.svg

<svg width="32" height="32" viewBox="0 0 32 32" fill="none" xmlns="http://www.w3.org/2000/svg">
<path fill-rule="evenodd" clip-rule="evenodd" d="M13.3319 2.6665C12.2772 2.6665 11.2652 3.08517 10.5185 3.83184L9.32785 5.0225C9.08039 5.26656 8.74741 5.40435 8.39985 5.4065H6.71852C6.19581 5.40633 5.67818 5.50915 5.19523 5.70911C4.71228 5.90906 4.27345 6.20222 3.90384 6.57183C3.53423 6.94144 3.24107 7.38026 3.04112 7.86322C2.84117 8.34617 2.73834 8.86379 2.73852 9.3865V11.0692C2.73636 11.4167 2.59858 11.7497 2.35452 11.9972L1.16385 13.1878C0.417711 13.934 -0.00146484 14.946 -0.00146484 16.0012C-0.00146484 17.0564 0.417711 18.0684 1.16385 18.8145L2.35452 20.0052C2.59858 20.2526 2.73636 20.5856 2.73852 20.9332V22.6158C2.73852 23.671 3.1577 24.683 3.90384 25.4292C4.64999 26.1753 5.66198 26.5945 6.71718 26.5945H8.39985C8.74785 26.5945 9.08252 26.7332 9.32785 26.9785L10.5185 28.1692C11.2647 28.9153 12.2766 29.3345 13.3319 29.3345C14.3871 29.3345 15.399 28.9153 16.1452 28.1692L17.3359 26.9785C17.5833 26.7344 17.9163 26.5967 18.2639 26.5945H19.9465C21.0017 26.5945 22.0137 26.1753 22.7599 25.4292C23.506 24.683 23.9252 23.671 23.9252 22.6158V20.9332C23.9252 20.5852 24.0639 20.2505 24.3092 20.0052L25.4999 18.8145C26.246 18.0684 26.6652 17.0564 26.6652 16.0012C26.6652 14.946 26.246 13.934 25.4999 13.1878L24.3092 11.9972C24.0651 11.7497 23.9273 11.4167 23.9252 11.0692V9.3865C23.9252 8.3313 23.506 7.31931 22.7599 6.57316C22.0137 5.82702 21.0017 5.40784 19.9465 5.40784H18.2639C17.9163 5.40568 17.5833 5.2679 17.3359 5.02384L16.1452 3.83317C15.776 3.46324 15.3375 3.16977 14.8547 2.96958C14.372 2.76938 13.8545 2.66639 13.3319 2.6665Z" fill="currentColor"/>
<path d="M19.6652 18.6672V13.3339L15.9985 9.66724H10.6652L6.99854 13.3339V18.6672L10.6652 22.3339H15.9985L19.6652 18.6672Z" stroke="white" stroke-width="1.2" stroke-linecap="square"/>
<path d="M13.332 18.6672V15.6672" stroke="white" stroke-width="1.2" stroke-linecap="round"/>
<path d="M13.332 13.3416V13.335" stroke="white" stroke-width="1.2" stroke-linecap="round"/>
</svg>

<svg xmlns="http://www.w3.org/2000/svg" width="32" height="32" fill="none" viewBox="0 0 32 32"><path fill="currentColor" fill-rule="evenodd" d="M13.332 2.667a3.98 3.98 0 0 0-2.814 1.165l-1.19 1.19c-.248.245-.58.382-.928.385H6.719a3.98 3.98 0 0 0-3.98 3.98v1.682c-.003.348-.14.68-.384.928l-1.191 1.19a3.98 3.98 0 0 0 0 5.627l1.19 1.191c.245.248.382.58.385.928v1.683a3.98 3.98 0 0 0 3.978 3.979H8.4c.348 0 .683.138.928.384l1.19 1.19a3.98 3.98 0 0 0 5.627 0l1.19-1.19c.248-.245.581-.382.929-.384h1.683a3.98 3.98 0 0 0 3.978-3.98v-1.682c0-.348.139-.683.384-.928l1.19-1.19a3.98 3.98 0 0 0 0-5.627l-1.19-1.19a1.33 1.33 0 0 1-.384-.929V9.386a3.98 3.98 0 0 0-3.979-3.978h-1.682a1.33 1.33 0 0 1-.928-.384l-1.19-1.19a3.97 3.97 0 0 0-2.814-1.167" clip-rule="evenodd"/><path stroke="#fff" stroke-linecap="square" stroke-width="1.2" d="M19.665 18.667v-5.333L16 9.667h-5.334L7 13.334v5.333l3.666 3.667H16z"/><path stroke="#fff" stroke-linecap="round" stroke-width="1.2" d="M13.332 18.667v-3m0-2.325v-.007"/></svg>
